X:7398
T:The Teilte Gathering
O:england
M:3/2
L:1/4
Q:250
C:Stephen P. McNally
R:Single Hornpipe
K:D
|:dfdgda-|adgdfd-|dfdgda-|abagfe:|
|:fB2dcB|cA2gfe|fdfcfB|1AdfAeg:|2Ae2-e3|


